X: 1
T: Welcome to Ayr
C: Colin Dewar
R: jig
B: RSCDS 47-8
N: Tune for dance by the same name
Z: 2014 John Chambers <jc:trillian.mit.edu>
M: 6/8
L: 1/8
K: D
A |\
"D"d2A "A7"FAF | "D"DFA BAF | "G"GBG "D"FDA | "Em"GFG "A7"EAc |\
"D"d2A "A7"FAF | "D"DFA BAF | "G"GAB "A7"cAe | "D"d3 d2 :|
|: A |\
"G"Bcd "Em"GAB | "D"Acd "B7"FGA | "Em"G2E "A7"CDE | "D"D2F "D7"Adc |\
"G"Bcd "Em"GAB | "D"Acd "B7"FGA | "Em"GAB "A7"cAe | "D"d3 d2 :|
